2024/access/img/e.svg

<svg width="31" height="32" viewBox="0 0 31 32" fill="none" xmlns="http://www.w3.org/2000/svg">
<path d="M29.1471 32H0.439941C0.439941 32 5.49274 31.0144 5.49274 27.0784V1.968C5.49274 0.4896 4.52314 0 4.52314 0H30.5775C30.5775 0 28.7023 0.2048 28.7023 0.992C28.7023 1.44 28.6511 1.456 28.5551 1.456H17.7167C16.1839 1.456 12.6639 1.728 12.6639 4.9216V15.2704H28.8399C28.8399 15.2704 26.9647 15.4752 26.9647 16.2624C26.9647 16.7104 26.9135 16.7264 26.8175 16.7264H12.6671V28.5088C12.6671 29.9872 13.0895 30.4768 13.6367 30.4768H30.5807C30.5807 30.4768 28.7055 30.6816 28.7055 31.4688C28.7055 31.616 28.7215 31.92 29.1535 31.9968L29.1471 32Z" fill="#FF0084"/>
</svg>

<svg xmlns="http://www.w3.org/2000/svg" width="31" height="32" fill="none" viewBox="0 0 31 32"><path fill="#ff0084" d="M29.15 32H.44s5.05-.99 5.05-4.92V1.97C5.5.49 4.52 0 4.52 0h26.06S28.7.2 28.7 1c0 .44-.05.46-.14.46H17.72c-1.54 0-5.06.27-5.06 3.46v10.35h16.18s-1.88.2-1.88 1c0 .44-.05.46-.14.46H12.67V28.5c0 1.48.42 1.97.97 1.97h16.94s-1.87.2-1.87.99c0 .15.01.45.44.53"/></svg>
